justvector/github.svg

<?xml version="1.0" encoding="iso-8859-1"?>
<!-- Generator: Adobe Illustrator 15.0.0, SVG Export Plug-In . SVG Version: 6.00 Build 0)  -->
<!DOCTYPE svg PUBLIC "-//W3C//DTD SVG 1.1//EN" "http://www.w3.org/Graphics/SVG/1.1/DTD/svg11.dtd">
<svg version="1.1" id="Icons" xmlns="http://www.w3.org/2000/svg" xmlns:xlink="http://www.w3.org/1999/xlink" x="0px" y="0px"
	 width="100px" height="100px" viewBox="0 0 100 100" style="enable-background:new 0 0 100 100;" xml:space="preserve">
<path id="Github" d="M74.5,5.272c-8.047,5.03-16.343,0.787-22.323,0C25.772,1.793,17.378,32.598,36.616,44.949
	c-4.953,2.565-4.629,15.624,0.678,17.484c-12.5,1.43-14.818,19.047-8.117,26.229c8.153,8.736,33.234,8.158,40.588,0
	c5.135-5.699,5.848-17.445,1.35-22.863c-4.099-4.945-24.67-5.692-24.35-13.452c0.223-5.423,7.661-4.568,12.177-6.725
	c8.493-4.061,13.483-16.212,10.146-25.556c1.894-0.356,3.515-0.988,5.412-1.344V5.272z M42.03,33.519
	c-9.899-21.566,22.76-20.019,12.854,0C51.633,35.927,45.239,36.166,42.03,33.519z M60.294,75.885
	c0.877,9.671-18.706,10.1-20.971,3.366c-1.906-5.674,0.467-7.282,6.087-8.744C51.776,68.849,59.706,69.416,60.294,75.885z"/>
</svg>

<?xml version="1.0" encoding="UTF-8" standalone="no"?>
<!DOCTYPE svg PUBLIC "-//W3C//DTD SVG 1.1//EN" "http://www.w3.org/Graphics/SVG/1.1/DTD/svg11.dtd">
<svg width="100%" height="100%" viewBox="0 0 100 100" version="1.1" xmlns="http://www.w3.org/2000/svg" xmlns:xlink="http://www.w3.org/1999/xlink" xml:space="preserve" xmlns:serif="http://www.serif.com/" style="fill-rule:evenodd;clip-rule:evenodd;stroke-linejoin:round;stroke-miterlimit:2;">
    <path id="Github" d="M74.5,5.272C66.453,10.302 58.157,6.059 52.177,5.272C25.772,1.793 17.378,32.598 36.616,44.949C31.663,47.514 31.987,60.573 37.294,62.433C24.794,63.863 22.476,81.48 29.177,88.662C37.33,97.398 62.411,96.82 69.765,88.662C74.9,82.963 75.613,71.217 71.115,65.799C67.016,60.854 46.445,60.107 46.765,52.347C46.988,46.924 54.426,47.779 58.942,45.622C67.435,41.561 72.425,29.41 69.088,20.066C70.982,19.71 72.603,19.078 74.5,18.722L74.5,5.272ZM42.03,33.519C32.131,11.953 64.79,13.5 54.884,33.519C51.633,35.927 45.239,36.166 42.03,33.519ZM60.294,75.885C61.171,85.556 41.588,85.985 39.323,79.251C37.417,73.577 39.79,71.969 45.41,70.507C51.776,68.849 59.706,69.416 60.294,75.885Z" style="fill:rgb(0,255,82);fill-rule:nonzero;"/>
</svg>
